assets/img/logos/logo-github.svg

<svg fill="none" height="32" viewBox="0 0 32 32" width="32" xmlns="http://www.w3.org/2000/svg" xmlns:xlink="http://www.w3.org/1999/xlink"><clipPath id="a"><path d="m0 0h32v32h-32z"/></clipPath><g clip-path="url(#a)" fill="#5a5a5a"><path clip-rule="evenodd" d="m16.0004.666656c-3.7983.001971-7.47215 1.347274-10.36449 3.795364-2.89235 2.44809-4.814624 5.83928-5.423103 9.56728-.608478 3.728.13651 7.5496 2.101773 10.7816 1.96525 3.2319 5.02262 5.6634 8.62542 6.8597.7948.1475 1.0942-.3451 1.0942-.7639 0-.4189-.0159-1.6334-.0212-2.9611-4.45106.9616-5.3916-1.8783-5.3916-1.8783-.72595-1.8441-1.77514-2.3288-1.77514-2.3288-1.45189-.9852.10864-.9668.10864-.9668 1.60821.1133 2.45339 1.6412 2.45339 1.6412 1.4254 2.4315 3.74361 1.7282 4.65501 1.3172.1431-1.03.5591-1.7308 1.0174-2.1286-3.55551-.4004-7.29123-1.765-7.29123-7.8609-.02204-1.581.56797-3.1099 1.64796-4.2704-.16427-.4004-.71271-2.0179.15631-4.21497 0 0 1.34328-.42677 4.40076 1.63068 2.6225-.71309 5.3894-.71309 8.0119 0 3.0548-2.05745 4.3954-1.63068 4.3954-1.63068.8717 2.1918.3233 3.80927.159 4.21497 1.0834 1.1607 1.6746 2.6923 1.6506 4.2756 0 6.1091-3.7437 7.4553-7.3045 7.8478.5722.4953 1.0836 1.4621 1.0836 2.9479 0 2.1286-.0185 3.8409-.0185 4.3652 0 .4241.2887.9193 1.0995.7639 3.6032-1.1964 6.6608-3.6283 8.6261-6.8608 1.9652-3.2325 2.7098-7.0547 2.1006-10.7831-.6092-3.7283-2.5324-7.11957-5.4257-9.56724-2.8933-2.44766-6.568-3.792082-10.3668-3.792804z" fill-rule="evenodd"/><path d="m6.05933 23.5093c-.03444.0791-.16162.1028-.26494.0475-.10333-.0554-.18016-.1581-.14307-.2398.03709-.0816.16162-.1027.26495-.0474.10332.0553.1828.1607.14306.2397z"/><path d="m6.70847 24.2285c-.05487.0275-.11764.0352-.17757.0217-.05994-.0134-.11329-.0472-.15096-.0955-.10333-.1106-.12454-.2634-.04505-.3319.07948-.0685.22256-.0369.32589.0738.10333.1106.12717.2634.04769.3319z"/><path d="m7.33891 25.1426c-.09803.0685-.26495 0-.35768-.1369-.02564-.0246-.04603-.0541-.05996-.0867-.01394-.0326-.02112-.0676-.02112-.103s.00718-.0705.02112-.1031c.01393-.0326.03432-.062.05996-.0866.09803-.0658.26495 0 .35768.1344.09273.1343.09538.3135 0 .3819z"/><path d="m8.19474 26.0278c-.08743.0974-.26494.0711-.41066-.0606s-.18017-.3109-.09274-.4057.26494-.0685.41596.0606.18017.3108.08744.4057z"/><path d="m9.39482 26.5441c-.03974.1238-.21991.1792-.40007.1265s-.29939-.2002-.26495-.3267c.03445-.1264.21726-.1844.40007-.1264.18281.0579.29939.1975.26495.3266z"/><path d="m10.7038 26.6337c0 .1291-.1484.2397-.3391.2424-.1908.0026-.3471-.1028-.3471-.2319 0-.129.1483-.2397.3391-.2423.1908-.0027.3471.1001.3471.2318z"/><path d="m11.9226 26.4309c.0239.129-.1086.2634-.2994.295-.1907.0316-.3577-.0448-.3815-.1712-.0238-.1265.1139-.2635.2994-.2977.1854-.0343.3577.0448.3815.1739z"/></g></svg>

<svg width="32" height="32" viewBox="0 0 32 32" fill="none" xmlns="http://www.w3.org/2000/svg">
<g clip-path="url(#clip0_2605_582)">
<path fill-rule="evenodd" clip-rule="evenodd" d="M16.0004 0.666656C12.2021 0.668627 8.52825 2.01393 5.63591 4.46202C2.74356 6.91011 0.821286 10.3013 0.212807 14.0293C-0.395671 17.7573 0.349317 21.5789 2.31458 24.8109C4.27983 28.0428 7.3372 30.4743 10.94 31.6706C11.7348 31.8181 12.0342 31.3255 12.0342 30.9067C12.0342 30.4878 12.0183 29.2733 12.013 27.9456C7.56194 28.9072 6.6214 26.0673 6.6214 26.0673C5.89545 24.2232 4.84626 23.7385 4.84626 23.7385C3.39437 22.7533 4.9549 22.7717 4.9549 22.7717C6.56311 22.885 7.40829 24.4129 7.40829 24.4129C8.83369 26.8444 11.1519 26.1411 12.0633 25.7301C12.2064 24.7001 12.6224 23.9993 13.0807 23.6015C9.52519 23.2011 5.78947 21.8365 5.78947 15.7406C5.76743 14.1596 6.35744 12.6307 7.43743 11.4702C7.27316 11.0698 6.72472 9.4523 7.59374 7.25523C7.59374 7.25523 8.93702 6.82846 11.9945 8.88591C14.617 8.17282 17.3839 8.17282 20.0064 8.88591C23.0612 6.82846 24.4018 7.25523 24.4018 7.25523C25.2735 9.44703 24.7251 11.0645 24.5608 11.4702C25.6442 12.6309 26.2354 14.1625 26.2114 15.7458C26.2114 21.8549 22.4677 23.2011 18.9069 23.5936C19.4791 24.0889 19.9905 25.0557 19.9905 26.5415C19.9905 28.6701 19.972 30.3824 19.972 30.9067C19.972 31.3308 20.2607 31.826 21.0715 31.6706C24.6747 30.4742 27.7323 28.0423 29.6976 24.8098C31.6628 21.5773 32.4074 17.7551 31.7982 14.0267C31.189 10.2984 29.2658 6.90713 26.3725 4.45946C23.4792 2.0118 19.8045 0.667378 16.0057 0.666656H16.0004Z" fill="#5A5A5A"/>
<path d="M6.05933 23.5093C6.02489 23.5884 5.89771 23.6121 5.79439 23.5568C5.69106 23.5014 5.61423 23.3987 5.65132 23.317C5.68841 23.2354 5.81294 23.2143 5.91627 23.2696C6.01959 23.3249 6.09907 23.4303 6.05933 23.5093Z" fill="#5A5A5A"/>
<path d="M6.70847 24.2285C6.6536 24.256 6.59083 24.2637 6.5309 24.2502C6.47096 24.2368 6.41761 24.203 6.37994 24.1547C6.27661 24.0441 6.2554 23.8913 6.33489 23.8228C6.41437 23.7543 6.55745 23.7859 6.66078 23.8966C6.76411 24.0072 6.78795 24.16 6.70847 24.2285Z" fill="#5A5A5A"/>
<path d="M7.33891 25.1426C7.24088 25.2111 7.07396 25.1426 6.98123 25.0057C6.95559 24.9811 6.9352 24.9516 6.92127 24.919C6.90733 24.8864 6.90015 24.8514 6.90015 24.816C6.90015 24.7806 6.90733 24.7455 6.92127 24.7129C6.9352 24.6803 6.95559 24.6509 6.98123 24.6263C7.07926 24.5605 7.24618 24.6263 7.33891 24.7607C7.43164 24.895 7.43429 25.0742 7.33891 25.1426Z" fill="#5A5A5A"/>
<path d="M8.19474 26.0278C8.10731 26.1252 7.9298 26.0989 7.78408 25.9672C7.63836 25.8355 7.60391 25.6563 7.69134 25.5615C7.77877 25.4667 7.95628 25.493 8.1073 25.6221C8.25832 25.7512 8.28747 25.9329 8.19474 26.0278Z" fill="#5A5A5A"/>
<path d="M9.39482 26.5441C9.35508 26.6679 9.17491 26.7233 8.99475 26.6706C8.81459 26.6179 8.69536 26.4704 8.7298 26.3439C8.76425 26.2175 8.94706 26.1595 9.12987 26.2175C9.31268 26.2754 9.42926 26.415 9.39482 26.5441Z" fill="#5A5A5A"/>
<path d="M10.7038 26.6337C10.7038 26.7628 10.5554 26.8734 10.3647 26.8761C10.1739 26.8787 10.0176 26.7733 10.0176 26.6442C10.0176 26.5152 10.1659 26.4045 10.3567 26.4019C10.5475 26.3992 10.7038 26.502 10.7038 26.6337Z" fill="#5A5A5A"/>
<path d="M11.9226 26.4309C11.9465 26.5599 11.814 26.6943 11.6232 26.7259C11.4325 26.7575 11.2655 26.6811 11.2417 26.5547C11.2179 26.4282 11.3556 26.2912 11.5411 26.257C11.7265 26.2227 11.8988 26.3018 11.9226 26.4309Z" fill="#5A5A5A"/>
</g>
<defs>
<clipPath id="clip0_2605_582">
<rect width="32" height="32" fill="white"/>
</clipPath>
</defs>
</svg>
